X:1
T:Title
%%score { ( 1 4 5 ) | ( 2 3 ) }
L:1/8
M:4/4
K:F
V:1 treble nm="Grand Piano"
V:4 treble 
V:5 treble 
V:2 bass 
V:3 bass 
V:1
 z4 z2[Q:1/4=92] A2 | [CA]3 A _A=A [DB]>A | [B,G]6 C2 | [B,G]3 B AG [A,F]>G |[M:3/4] [CA]6 | %5
[M:1/4] c2 |[M:4/4] [A,c]3 c cA B>c | d6[K:bass][K:treble] z2 | [B,d]3 G GG [B,A]>G | %9
[M:3/4] [CG]6 |[M:1/4] G2 |[M:4/4] cc[DF]B A2 G2 |[M:3/4] [A,F]6 |[M:1/4] [Ac]2 |[M:4/4] [Bc]6 z2 | %15
 A6 z2 | c c3 d3 d | [Ge]6 z [Be] | [Af]4 z4 | c6 z2 | [DFG][DFG][DFG][DGB] [CFA]2 [B,EG]2 | %21
[M:3/4] [A,CF]6 |] %22
V:2
 z4 z2 C2 | F,,C, z C =B,C z z/ C/ | C,,2 E,,G,, C,2 B,2 | C,,G,, z D CB, z z/ B,/ | %4
[M:3/4] F,,2 A,,C, F,2 |[M:1/4] A,2 |[M:4/4] z2 F,2 z2 G,2 | B,4 z2 B,2 | %8
 G,,D, z B, B,B, z z/ B,/ |[M:3/4] C,,2 E,,G,, C,2 |[M:1/4] B,2 | %11
[M:4/4] A,A, z ^C [C,F,=C]2 [C,E,B,]2 |[M:3/4] [F,,C,]6 |[M:1/4] [F,F]2 | %14
[M:4/4] [G,E]2 G,2 z E z z/[K:treble] G/ | [F,CF]2[K:bass] F,2 F,2 [F,A,F]2 | %16
 [G,CE] [G,CE]3[K:treble] [G,=B,G]3 [G,B,G] | z4 C2[K:bass] z2 | [F,C]2 z[K:treble] F FF F>F | %19
 [F,A,]2 z2 z4 | B,,B,,B,,G,, C,2 C,2 |[M:3/4] F,6 |] %22
V:3
 x8 | z2 F,2 z2 [F,,F,]2 | x8 | z2 C,2 z2 [C,,C,]2 |[M:3/4] x6 |[M:1/4] x2 | %6
[M:4/4] F,,C, z A, A,F, [F,,E,]->[F,,E,A,] | B,,2 z2 z4 | z2 G,2 z2 [G,,G,]2 |[M:3/4] x6 | %10
[M:1/4] x2 |[M:4/4] F,2 B,,2 z4 |[M:3/4] x6 |[M:1/4] x2 |[M:4/4] z4 C,2 [C,C]2[K:treble] | %15
 x2[K:bass] x6 | x4[K:treble] x4 | CC C>C z[K:bass] B,A,[G,C] | z2 F,2[K:treble] [F,D]2 [F,B,]2 | %19
 F2- [C,F-]2 [F,F]2 A,,2 | x8 |[M:3/4] x6 |] %22
V:4
 x8 | x8 | x8 | x8 |[M:3/4] x6 |[M:1/4] x2 |[M:4/4] x8 | z2[K:bass] D,F, B,2[K:treble] d2 | x8 | %9
[M:3/4] x6 |[M:1/4] x2 |[M:4/4] x8 |[M:3/4] x6 |[M:1/4] x2 |[M:4/4] z2 E2 z G [FA]>B | z4 C2 c2 | %16
 x8 | x8 | z2 z A BB d>d | z2 A,2 A,2 [CF]2 | x8 |[M:3/4] x6 |] %22
V:5
 x8 | x8 | x8 | x8 |[M:3/4] x6 |[M:1/4] x2 |[M:4/4] x8 | x2[K:bass] x4[K:treble] x2 | x8 | %9
[M:3/4] x6 |[M:1/4] x2 |[M:4/4] x8 |[M:3/4] x6 |[M:1/4] x2 |[M:4/4] z4 C2 z2 | z2 F4 z2 | x8 | x8 | %18
 z2 _E2 z4 | x8 | x8 |[M:3/4] x6 |] %22

